public/images/bag.svg

<svg xmlns:xlink="http://www.w3.org/1999/xlink" xmlns="http://www.w3.org/2000/svg" width="18" height="18" viewBox="0 0 18 18" fill="none">
<g clip-path="url(#clip0)">
<path d="M16.1123 16.1661L15.3255 7.31229C15.3126 7.16723 15.1847 7.06046 15.0395 7.07298C14.8945 7.08588 14.7874 7.21392 14.8002 7.35898L15.5615 15.9258H4.90729C4.76164 15.9258 4.64362 16.0438 4.64362 16.1895C4.64362 16.3351 4.76164 16.4531 4.90729 16.4531H15.5839C15.5197 17.0056 15.0477 17.4727 14.4341 17.4727H3.56573C2.95208 17.4727 2.48011 17.0055 2.41595 16.4531H3.67475C3.8204 16.4531 3.93842 16.3351 3.93842 16.1895C3.93842 16.0438 3.8204 15.9258 3.67475 15.9258H2.43834L3.37729 5.35901C3.43077 4.75759 3.92636 4.30404 4.53017 4.30404H5.74819V6.01017C5.74819 6.15582 5.86621 6.27384 6.01187 6.27384C6.15752 6.27384 6.27554 6.15582 6.27554 6.01017V4.30404H11.7243V6.01618C11.7243 6.16184 11.8423 6.27986 11.9879 6.27986C12.1336 6.27986 12.2516 6.16184 12.2516 6.01618V4.30404H13.4696C14.0734 4.30404 14.569 4.75756 14.6225 5.35901L14.6895 6.11339C14.7024 6.25841 14.8306 6.36546 14.9755 6.3527C15.1206 6.33983 15.2277 6.21176 15.2148 6.0667L15.1478 5.31232C15.07 4.43689 14.3486 3.7767 13.4697 3.7767H12.2516V3.25171C12.2516 1.4587 10.7929 0 8.9999 0C7.2069 0 5.74819 1.4587 5.74819 3.25171V3.7767H4.53017C3.65127 3.7767 2.92982 4.43686 2.85202 5.31232L1.88758 16.1661C1.80011 17.1508 2.57742 18 3.56573 18H14.4341C14.9057 18 15.3587 17.8005 15.677 17.4526C15.9954 17.1047 16.154 16.6358 16.1123 16.1661ZM6.27554 3.25171C6.27554 1.74952 7.49771 0.527344 8.9999 0.527344C10.5021 0.527344 11.7243 1.74952 11.7243 3.25171V3.7767H6.27554V3.25171Z" fill="black"/>
</g>
<defs>
<clipPath id="clip0">
<rect width="18" height="18" fill="white"/>
</clipPath>
</defs>
</svg>

<svg xmlns="http://www.w3.org/2000/svg" width="18" height="18" fill="none"><g clip-path="url(#a)"><path fill="#000" d="m16.112 16.166-.786-8.854a.264.264 0 0 0-.526.047l.761 8.567H4.908a.264.264 0 1 0 0 .527h10.677a1.157 1.157 0 0 1-1.15 1.02H3.566a1.157 1.157 0 0 1-1.15-1.02h1.259a.264.264 0 1 0 0-.527H2.438l.94-10.567A1.15 1.15 0 0 1 4.53 4.304h1.218V6.01a.264.264 0 1 0 .528 0V4.304h5.448v1.712a.264.264 0 1 0 .528 0V4.304h1.218c.603 0 1.099.454 1.152 1.055l.068.754a.264.264 0 0 0 .525-.046l-.067-.755a1.676 1.676 0 0 0-1.678-1.535h-1.218v-.525A3.255 3.255 0 0 0 9 0a3.255 3.255 0 0 0-3.252 3.252v.525H4.53c-.879 0-1.6.66-1.678 1.535l-.964 10.854A1.686 1.686 0 0 0 3.566 18h10.868a1.69 1.69 0 0 0 1.678-1.834M6.276 3.252A2.727 2.727 0 0 1 9 .527a2.73 2.73 0 0 1 2.724 2.725v.525H6.276z"/></g><defs><clipPath id="a"><path fill="#fff" d="M0 0h18v18H0z"/></clipPath></defs></svg>
